packages/synapse-interface/assets/icons/weth.svg

<svg fill="none" height="48" viewBox="0 0 48 48" width="48" xmlns="http://www.w3.org/2000/svg" xmlns:xlink="http://www.w3.org/1999/xlink"><clipPath id="a"><path d="m0 0h48v48h-48z"/></clipPath><g clip-path="url(#a)"><circle cx="24" cy="24" fill="#fff" r="24"/><path clip-rule="evenodd" d="m23.7305 4.00049c.1474-.00723.2907.06536.3709.19498l12.2977 19.86613c.0589.0951.0767.2101.0491.3186-.0275.1085-.0978.2011-.195.2567l-12.2977 7.0371c-.0695.0397-.1477.0577-.2251.054-.0773.0037-.1555-.0143-.225-.054l-12.2977-7.0371c-.0971-.0556-.1675-.1482-.195-.2567s-.0098-.2235.0491-.3186l12.2977-19.86613c.0802-.12962.2235-.20221.371-.19498zm12.4834 22.37051c.1311.1441.1437.3602.0301.5185l-12.1582 16.9385c-.083.1157-.2179.1782-.3553.1715-.1375.0067-.2724-.0558-.3554-.1715l-12.1583-16.9385c-.1136-.1583-.101-.3744.0302-.5185.1311-.144.3452-.1767.5133-.0783l11.9702 7 11.97-7c.1682-.0984.3822-.0657.5134.0783z" fill="#fff" fill-rule="evenodd"/><path d="m23.2977 42.3049-10.2791-14.3205 10.2791 6.0111z" fill="#959190"/><path d="m24.1632 42.3049v-8.3095l10.279-6.011z" fill="#3b3735"/><path d="m23.2977 30.6043-10.9758-6.2806 10.9758-4.9149z" fill="#403c3a"/><path d="m24.1632 30.6043v-11.1955l10.9759 4.9149z" fill="#1f1d19"/><path d="m23.2977 18.5047-10.8265 4.848 10.8265-17.48966z" fill="#959190"/><path d="m24.1632 18.5047v-12.64166l10.8266 17.48966z" fill="#3b3735"/></g></svg>

<svg width="48" height="48" viewBox="0 0 48 48" fill="none" xmlns="http://www.w3.org/2000/svg">
<g clip-path="url(#clip0_1275_22894)">
<circle cx="24" cy="24" r="24" fill="white"/>
<path fill-rule="evenodd" clip-rule="evenodd" d="M23.7305 4.00049C23.8779 3.99326 24.0212 4.06585 24.1014 4.19547L36.3991 24.0616C36.458 24.1567 36.4758 24.2717 36.4482 24.3802C36.4207 24.4887 36.3504 24.5813 36.2532 24.6369L23.9555 31.674C23.886 31.7137 23.8078 31.7317 23.7304 31.728C23.6531 31.7317 23.5749 31.7137 23.5054 31.674L11.2077 24.6369C11.1106 24.5813 11.0402 24.4887 11.0127 24.3802C10.9852 24.2717 11.0029 24.1567 11.0618 24.0616L23.3595 4.19547C23.4397 4.06585 23.583 3.99326 23.7305 4.00049ZM36.2139 26.371C36.345 26.5151 36.3576 26.7312 36.244 26.8895L24.0858 43.828C24.0028 43.9437 23.8679 44.0062 23.7305 43.9995C23.593 44.0062 23.4581 43.9437 23.3751 43.828L11.2168 26.8895C11.1032 26.7312 11.1158 26.5151 11.247 26.371C11.3781 26.227 11.5922 26.1943 11.7603 26.2927L23.7305 33.2927L35.7005 26.2927C35.8687 26.1943 36.0827 26.227 36.2139 26.371Z" fill="white"/>
<path d="M23.2977 42.3049L13.0186 27.9844L23.2977 33.9955V42.3049Z" fill="#959190"/>
<path d="M24.1632 42.3049V33.9954L34.4422 27.9844L24.1632 42.3049Z" fill="#3B3735"/>
<path d="M23.2977 30.6043L12.3219 24.3237L23.2977 19.4088V30.6043Z" fill="#403C3A"/>
<path d="M24.1632 30.6043V19.4088L35.1391 24.3237L24.1632 30.6043Z" fill="#1F1D19"/>
<path d="M23.2977 18.5047L12.4712 23.3527L23.2977 5.86304V18.5047Z" fill="#959190"/>
<path d="M24.1632 18.5047V5.86304L34.9898 23.3527L24.1632 18.5047Z" fill="#3B3735"/>
</g>
<defs>
<clipPath id="clip0_1275_22894">
<rect width="48" height="48" fill="white"/>
</clipPath>
</defs>
</svg>
